src/containers/site/SiteFaqScreen/asset/down_arrow_orange.svg

<svg width="18" height="18" viewBox="0 0 18 18" fill="none" xmlns="http://www.w3.org/2000/svg">
<mask id="path-1-inside-1" fill="white">
<path fill-rule="evenodd" clip-rule="evenodd" d="M17.4003 8.70005L8.7002 17.4001L0.000140491 8.70005"/>
</mask>
<path d="M8.7002 17.4001L7.28598 18.8143L8.7002 20.2285L10.1144 18.8143L8.7002 17.4001ZM15.986 7.28584L7.28598 15.9859L10.1144 18.8143L18.8145 10.1143L15.986 7.28584ZM10.1144 15.9859L1.41435 7.28584L-1.41407 10.1143L7.28598 18.8143L10.1144 15.9859Z" fill="#FFA845" mask="url(#path-1-inside-1)"/>
</svg>

<svg width="18" height="18" fill="none" xmlns="http://www.w3.org/2000/svg"><mask id="a" fill="#fff"><path fill-rule="evenodd" clip-rule="evenodd" d="M17.4 8.7l-8.7 8.7L0 8.7"/></mask><path d="M8.7 17.4l-1.414 1.414L8.7 20.23l1.414-1.415L8.7 17.4zm7.286-10.114l-8.7 8.7 2.828 2.828 8.7-8.7-2.828-2.828zm-5.872 8.7l-8.7-8.7-2.828 2.828 8.7 8.7 2.828-2.828z" fill="#FFA845" mask="url(#a)"/></svg>
